X:1
T:Title
%%score { ( 1 4 ) | ( 2 3 ) }
L:1/8
M:6/8
K:Db
V:1 treble nm="Grand Piano"
V:4 treble 
V:2 treble 
V:3 treble 
V:1
 z3 z2[Q:1/4=81] F | [FA]>AA BA=G | A3 F2 A | [Fd]>[Gd][Ad] [Bd]c[GB] | [FA]6 | [FA]>GF GEG | %6
 [Gc]3[K:bass][K:treble] z3 | [FA]AB A[FA][EG] | [DF]3- [DF]2 A | [Fd]2 d dcB | %10
 [Gc]3[K:bass][K:treble] z3 | [ce]dc [GB]AG | [DF]6 | [Fd]>dd [Gd][Gd][Fd] | [B,_Fd]3 .[DFB]3 | %15
 .[FA]3 .[EA]3 | [FA]6 | [FA]>[FB][Fc] [Fd]2 [Fe] | [Gc]6 | B>cd e2 [Af] | d2- [Gd-] [Fd]2 [FA] | %21
 [Af][Af][Af] [Fd][Gd][Fd] | [B,_Fd]3 .[DFB]3 | [DFA]>[DFA][DFA] [CEA]2 [EGA] | %24
[M:5/8] [DFA]-[DFA]- [DFA]3 |] %25
V:2
 z3 z2 D | z z/ F/F GF_F | F3 D2 F | z3 .G,3 | D,F,A, .D,3 | z z/ E/=D .E2 E | A,3- [A,G]2 G | %7
 z[K:treble] FG F[K:bass]B,,C, | D,A,,F,, D,,2 F | z2[K:treble] F FFF | .[E,A,]3 [A,G]2 A/B/ | %11
 z[K:treble] BA z FE | D,A,,F,, .D,,3 | z z/[K:treble] F/F[K:bass] [B,,G,]2 [A,,A,] | =G,,3 .G,,3 | %15
 z[K:treble] FF[K:bass] z2 G | [D,D]6 | [D,D]>[D,D][D,D] [D,A,]2 [D,A,] | [E,A,]2 A,, .A,3 | %19
 [A,EG]>[A,EG][A,EG] [A,CG]2[K:bass] [A,,A,] | [D,A,]2 [D,B,] [D,A,]2 [D,D] | %21
 [D,D][D,D][D,D] [_C,A,][B,,G,][A,,A,] | =G,,3 .G,,3 | A,,>A,,A,, A,,2 A,, |[M:5/8] D,-D,- D,3 |] %25
V:3
 x6 | D,6- | D,6 | D,>E,F, z AG,, | x6 | [B,,B,]3 [E,B,]3 | .A,,3 z3 | .A,,6[K:treble][K:bass] | %8
 x6 | [D,A,]6[K:treble] | x6 | A,,3[K:treble] A,3 | x6 | [_C,A,]3[K:treble][K:bass] z3 | x6 | %15
 A,,3[K:treble][K:bass] A,,3 | x6 | x6 | x6 | x5[K:bass] x | x6 | x6 | x6 | x6 |[M:5/8] x5 |] %25
V:4
 x6 | x6 | x6 | x6 | x6 | x6 | z[K:bass] C,E,[K:treble] c2 B | x6 | x6 | x6 | %10
 z2[K:bass] A,,[K:treble] c2 c/d/ | x6 | x6 | x6 | x6 | D-[D-A][DA] C2- [CA] | x6 | x6 | %18
 z2 A, .E3 | x6 | .F3 z3 | x6 | x6 | x6 |[M:5/8] x5 |] %25

